X: 1
T: The Stool Of Repentance
R: jig
M: 6/8
L: 1/8
K: Amaj
e | a2e c2e | agf edc | aff f2e | fag f2e |
a2e c2e | agf edc | d2e f2e | f<ac B2 :|
|: e | cAA eAA | cAA edc | dBB fBB | dBB fed |
cAA eAA | cAA edc | d2e f2e | fac B2A :|]
